X: 1
T:Jig
R:Jig
O:Ireland
M:6/8
K:D
D|\
ABA D2d|d=cA AGE|ABA ABc|dAB cde|\
ABA D2d|d=cA AGE|ADA Ade|fdc d2::
e|\
fdd edc|Add cde|fdd edc|ABc def|\
g2e age|ed=c cAG|ABA Ade|fdd d2:|
